static/logos/figma-glyph-color.svg

<svg width="34" height="50" viewBox="0 0 34 50" fill="none" xmlns="http://www.w3.org/2000/svg">
<g clip-path="url(#clip0_1_2758)">
<path d="M8.33333 50C12.9333 50 16.6667 46.2667 16.6667 41.6667V33.3334H8.33333C3.73333 33.3334 0 37.0667 0 41.6667C0 46.2667 3.73333 50 8.33333 50Z" fill="#0ACF83"/>
<path d="M0 25C0 20.4 3.73333 16.6666 8.33333 16.6666H16.6667V33.3333H8.33333C3.73333 33.3333 0 29.6 0 25Z" fill="#A259FF"/>
<path d="M0 8.33333C0 3.73333 3.73333 0 8.33333 0H16.6667V16.6667H8.33333C3.73333 16.6667 0 12.9333 0 8.33333Z" fill="#F24E1E"/>
<path d="M16.6719 0H25.0052C29.6052 0 33.3385 3.73333 33.3385 8.33333C33.3385 12.9333 29.6052 16.6667 25.0052 16.6667H16.6719V0Z" fill="#FF7262"/>
<path d="M33.3385 25C33.3385 29.6 29.6052 33.3333 25.0052 33.3333C20.4052 33.3333 16.6719 29.6 16.6719 25C16.6719 20.4 20.4052 16.6666 25.0052 16.6666C29.6052 16.6666 33.3385 20.4 33.3385 25Z" fill="#1ABCFE"/>
</g>
<defs>
<clipPath id="clip0_1_2758">
<rect width="33.34" height="50" fill="white"/>
</clipPath>
</defs>
</svg>

<svg xmlns="http://www.w3.org/2000/svg" width="43.52" height="64" fill="none" viewBox="0 0 34 50"><g clip-path="url(#a)"><path fill="#0ACF83" d="M8.333 50c4.6 0 8.334-3.733 8.334-8.333v-8.334H8.333A8.336 8.336 0 0 0 0 41.667C0 46.267 3.733 50 8.333 50Z"/><path fill="#A259FF" d="M0 25c0-4.6 3.733-8.333 8.333-8.333h8.334v16.666H8.333A8.336 8.336 0 0 1 0 25Z"/><path fill="#F24E1E" d="M0 8.333C0 3.733 3.733 0 8.333 0h8.334v16.667H8.333A8.336 8.336 0 0 1 0 8.333Z"/><path fill="#FF7262" d="M16.672 0h8.333c4.6 0 8.334 3.733 8.334 8.333s-3.734 8.334-8.334 8.334h-8.333V0Z"/><path fill="#1ABCFE" d="M33.339 25c0 4.6-3.734 8.333-8.334 8.333A8.336 8.336 0 0 1 16.672 25c0-4.6 3.733-8.333 8.333-8.333S33.34 20.4 33.34 25Z"/></g><defs><clipPath id="a"><path fill="#fff" d="M0 0h33.34v50H0z"/></clipPath></defs></svg>
